forward 50
forward 50
forward 50
forward 50
forward 50
forward 50
forward 50
forward 50
forward 50
forward 50
forward 50
forward 50
forward 50
forward 50
forward 50
forward 50
forward 50
forward 50
forward 50
forward 50
forward 1