forward 25
forward 25
forward 25
forward 25
right 100
forward 25
forward 25
right 100
forward 25
right 100
left 100
right 100
left 100
forward 25
left 100
forward 25
backward 25
right 100
right 100
left 100
backward 25
right 100
left 100
backward 25
left 100
forward 25
right 100
left 100
right 100
left 100
forward 25
left 100
forward 25
backward 25
right 100
right 100
left 100
backward 25
right 100
left 100
backward 25
right 100
left 100
forward 25
forward 25
left 100
forward 25
forward 25
forward 25
right 100
left 100
right 100
left 100
forward 25
left 100
forward 25
backward 25
right 100
right 100
left 100
backward 25
right 100
left 100
backward 25
backward 25
backward 25
right 100
right 100
forward 25
right 100
left 100
right 100
left 100
forward 25
left 100
forward 25
backward 25
right 100
right 100
left 100
backward 25
right 100
left 100
backward 25
left 100
backward 25
backward 25
right 100
left 100
backward 25
backward 25
left 100
forward 25
forward 25
right 100
forward 25
right 100
left 100
right 100
left 100
forward 25
left 100
forward 25
backward 25
right 100
right 100
left 100
backward 25
right 100
left 100
backward 25
left 100
forward 25
right 100
left 100
right 100
left 100
forward 25
left 100
forward 25
backward 25
right 100
right 100
left 100
backward 25
right 100
left 100
backward 25
right 100
left 100
forward 25
forward 25
left 100
forward 25
forward 25
forward 25
right 100
left 100
right 100
left 100
forward 25
left 100
forward 25
backward 25
right 100
right 100
left 100
backward 25
right 100
left 100
backward 25
backward 25
backward 25
right 100
right 100
forward 25
right 100
left 100
right 100
left 100
forward 25
left 100
forward 25
backward 25
right 100
right 100
left 100
backward 25
right 100
left 100
backward 25
left 100
backward 25
backward 25
right 100
left 100
backward 25
backward 25
right 100
left 100
forward 25
forward 25
forward 25
forward 25
left 100
forward 25
forward 25
forward 25
forward 25
forward 25
forward 25
right 100
forward 25
right 100
left 100
right 100
left 100
forward 25
left 100
forward 25
backward 25
right 100
right 100
left 100
backward 25
right 100
left 100
backward 25
left 100
forward 25
right 100
left 100
right 100
left 100
forward 25
left 100
forward 25
backward 25
right 100
right 100
left 100
backward 25
right 100
left 100
backward 25
right 100
left 100
forward 25
forward 25
left 100
forward 25
forward 25
forward 25
right 100
left 100
right 100
left 100
forward 25
left 100
forward 25
backward 25
right 100
right 100
left 100
backward 25
right 100
left 100
backward 25
backward 25
backward 25
right 100
right 100
forward 25
right 100
left 100
right 100
left 100
forward 25
left 100
forward 25
backward 25
right 100
right 100
left 100
backward 25
right 100
left 100
backward 25
left 100
backward 25
backward 25
right 100
left 100
backward 25
backward 25
backward 25
backward 25
backward 25
backward 25
right 100
right 100
forward 25
forward 25
right 100
forward 25
right 100
left 100
right 100
left 100
forward 25
left 100
forward 25
backward 25
right 100
right 100
left 100
backward 25
right 100
left 100
backward 25
left 100
forward 25
right 100
left 100
right 100
left 100
forward 25
left 100
forward 25
backward 25
right 100
right 100
left 100
backward 25
right 100
left 100
backward 25
right 100
left 100
forward 25
forward 25
left 100
forward 25
forward 25
forward 25
right 100
left 100
right 100
left 100
forward 25
left 100
forward 25
backward 25
right 100
right 100
left 100
backward 25
right 100
left 100
backward 25
backward 25
backward 25
right 100
right 100
forward 25
right 100
left 100
right 100
left 100
forward 25
left 100
forward 25
backward 25
right 100
right 100