forward 25
left 120
forward 25
right 120
forward 25
right 120
forward 25
left 120
forward 25
left 120
forward 25
forward 25
right 120
forward 25
left 120
forward 25
right 120
forward 25
right 120
forward 25
left 120
forward 25
right 120
forward 25
forward 25
left 120
forward 25
left 120
forward 25
right 120
forward 25
right 120
forward 25
left 120
forward 25
left 120
forward 25
forward 25
forward 25
forward 25
right 120
forward 25
left 120
forward 25
right 120
forward 25
right 120
forward 25
left 120
forward 25
left 120
forward 25
forward 25
right 120
forward 25
left 120
forward 25
right 120
forward 25
right 120
forward 25
left 120
forward 25
right 120
forward 25
forward 25
left 120
forward 25
left 120
forward 25
right 120
forward 25
right 120
forward 25
left 120
forward 25
right 120
forward 25
forward 25
forward 25
forward 25
left 120
forward 25
left 120
forward 25
right 120
forward 25
right 120
forward 25
left 120
forward 25
left 120
forward 25
forward 25
right 120
forward 25
left 120
forward 25
right 120
forward 25
right 120
forward 25
left 120
forward 25
right 120
forward 25
forward 25
left 120
forward 25
left 120
forward 25
right 120
forward 25
right 120
forward 25
left 120
forward 25
left 120
forward 25
forward 25
forward 25
forward 25
forward 25
forward 25
forward 25
forward 25
right 120
forward 25
left 120
forward 25
right 120
forward 25
right 120
forward 25
left 120
forward 25
left 120
forward 25
forward 25
right 120
forward 25
left 120
forward 25
right 120
forward 25
right 120
forward 25
left 120
forward 25
right 120
forward 25
forward 25
left 120
forward 25
left 120
forward 25
right 120
forward 25
right 120
forward 25
left 120
forward 25
left 120
forward 25
forward 25
forward 25
forward 25
right 120
forward 25
left 120
forward 25
right 120
forward 25
right 120
forward 25
left 120
forward 25
left 120
forward 25
forward 25
right 120
forward 25
left 120
forward 25
right 120
forward 25
right 120
forward 25
left 120
forward 25
right 120
forward 25
forward 25
left 120
forward 25
left 120
forward 25
right 120
forward 25
right 120
forward 25
left 120
forward 25
right 120
forward 25
forward 25
forward 25
forward 25
left 120
forward 25
left 120
forward 25
right 120
forward 25
right 120
forward 25
left 120
forward 25
left 120
forward 25
forward 25
right 120
forward 25
left 120
forward 25
right 120
forward 25
right 120
forward 25
left 120
forward 25
right 120
forward 25
forward 25
left 120
forward 25
left 120
forward 25
right 120
forward 25
right 120
forward 25
left 120
forward 25
right 120
forward 25
forward 25
forward 25
forward 25
forward 25
forward 25
forward 25
forward 25
left 120
forward 25
left 120
forward 25
right 120
forward 25
right 120
forward 25
left 120
forward 25
left 120
forward 25
forward 25
right 120
forward 25
left 120
forward 25
right 120
forward 25
right 120
forward 25
left 120
forward 25
right 120
forward 25
forward 25
left 120
forward 25
left 120
forward 25
right 120
forward 25
right 120
forward 25
left 120
forward 25
left 120
forward 25
forward 25
forward 25
forward 25
right 120
forward 25
left 120
forward 25
right 120
forward 25
right 120
forward 25
left 120
forward 25
left 120
forward 25
forward 25
right 120
forward 25
left 120
forward 25
right 120
forward 25
right 120
forward 25
left 120
forward 25
right 120
forward 25
forward 25
left 120
forward 25
left 120
forward 25
right 120
forward 25
right 120
forward 25
left 120
forward 25
right 120
forward 25
forward 25
forward 25
forward 25
left 120
forward 25
left 120
forward 25
right 120
forward 25
right 120
forward 25
left 120
forward 25
left 120
forward 25
forward 25
right 120
forward 25
left 120
forward 25
right 120
forward 25
right 120
forward 25
left 120
forward 25
right 120
forward 25
forward 25
left 120
forward 25
left 120
forward 25
right 120
forward 25
right 120
forward 25
left 120
forward 25
left 120
forward 25
forward 25
forward 25
forward 25
forward 25
forward 25
forward 25
forward 25
forward 25
forward 25
forward 25
forward 25
forward 25
forward 25
forward 25
forward 25
left 120
forward 25
forward 25
forward 25
forward 25
forward 25
forward 25
forward 25
forward 25
forward 25
forward 25
forward 25
forward 25
forward 25
forward 25
forward 25
forward 25